X:230
T:The Little Ball Of Yarn
M:C|
L:1/4
Q:1/4=3D200
K:G
D2|\
G>G G>A|B3    G|E>E E>E|c3 A   |
G2  G>G|B>B d>d|A3    D|
G>G G>A|B3    G|E>E E>E|c3 A/A/|
G>G G>G|F>G A>F|G2  D>D|
G>G G>A|B3    G|E>E E>E|c2 A>A |
G>G G>G|B>B d>d|A2  D>D|
G>G G>A|B2  G>G|E>E E>E|c2 A>A |
G>G G>G|F>G A>F|G3    ||
